other/sdscanner.svg

<svg version="1.1" viewBox="0 0 48 48" xmlns="http://www.w3.org/2000/svg"><defs><style>.a{fill:none;stroke:#fff;stroke-linecap:round;stroke-linejoin:round;}</style></defs><circle class="a" cx="22.8" cy="17.4" r="8.5"/><line class="a" x1="18.4" x2="7.2" y1="24.7" y2="42.4"/><path class="a" d="m37.7 4.8h-19.7v32.7h24.5v-27.9z"/><path class="a" d="m38.96 12.9h-17.59a1.07 1.19 0 0 0-1.07 1.19v19.68a1.07 1.19 0 0 0 1.07 1.19h17.59a1.07 1.19 0 0 0 1.07-1.19v-19.68a1.07 1.19 0 0 0-1.07-1.19z"/><path class="a" d="m23.7 17.4v15.5h13.8v-15.5z"/><line class="a" x1="26.46" x2="26.46" y1="20" y2="30.3"/><line class="a" x1="29.22" x2="29.22" y1="20" y2="30.3"/><line class="a" x1="31.98" x2="31.98" y1="20" y2="30.3"/><line class="a" x1="34.74" x2="34.74" y1="20" y2="30.3"/><path class="a" d="m24.44 11.11c1.76 0.47 2.95 1.62 3.92 2.93m-7.21 9.65c-1.76-0.47-2.95-1.62-3.92-2.93"/></svg>

<svg id="Layer_1" data-name="Layer 1" xmlns="http://www.w3.org/2000/svg" viewBox="0 0 48 48"><defs><style>.cls-1{fill:none;stroke:#fff;stroke-linecap:round;stroke-linejoin:round;}</style></defs><circle class="cls-1" cx="22.8" cy="17.4" r="8.5"/><line class="cls-1" x1="18.4" y1="24.7" x2="7.2" y2="42.4"/><path class="cls-1" d="M37.7,4.8H18V37.5H42.5V9.6Z"/><path class="cls-1" d="M39,12.9H21.37a1.13,1.13,0,0,0-1.07,1.19h0V33.77A1.13,1.13,0,0,0,21.37,35H39A1.13,1.13,0,0,0,40,33.77V14.09A1.13,1.13,0,0,0,39,12.9Z"/><path class="cls-1" d="M23.7,17.4V32.9H37.5V17.4Z"/><line class="cls-1" x1="26.46" y1="20" x2="26.46" y2="30.3"/><line class="cls-1" x1="29.22" y1="20" x2="29.22" y2="30.3"/><line class="cls-1" x1="31.98" y1="20" x2="31.98" y2="30.3"/><line class="cls-1" x1="34.74" y1="20" x2="34.74" y2="30.3"/><path class="cls-1" d="M24.44,11.11A7.18,7.18,0,0,1,28.36,14m-7.21,9.65a7.18,7.18,0,0,1-3.92-2.93"/></svg>
